svgs/sharp-regular/grid-horizontal.svg

<svg xmlns="http://www.w3.org/2000/svg" viewBox="0 0 448 512"><!--! Font Awesome Pro 6.6.0 by @fontawesome - https://fontawesome.com License - https://fontawesome.com/license (Commercial License) Copyright 2024 Fonticons, Inc. --><path d="M40 168l0 48 48 0 0-48-48 0zM0 128l40 0 48 0 40 0 0 40 0 48 0 40-40 0-48 0L0 256l0-40 0-48 0-40zM40 328l0 48 48 0 0-48-48 0zM0 288l40 0 48 0 40 0 0 40 0 48 0 40-40 0-48 0L0 416l0-40 0-48 0-40zM248 168l-48 0 0 48 48 0 0-48zm-48-40l48 0 40 0 0 40 0 48 0 40-40 0-48 0-40 0 0-40 0-48 0-40 40 0zm0 200l0 48 48 0 0-48-48 0zm-40-40l40 0 48 0 40 0 0 40 0 48 0 40-40 0-48 0-40 0 0-40 0-48 0-40zM408 168l-48 0 0 48 48 0 0-48zm-48-40l48 0 40 0 0 40 0 48 0 40-40 0-48 0-40 0 0-40 0-48 0-40 40 0zm0 200l0 48 48 0 0-48-48 0zm-40-40l40 0 48 0 40 0 0 40 0 48 0 40-40 0-48 0-40 0 0-40 0-48 0-40z"/></svg>

<svg xmlns="http://www.w3.org/2000/svg" viewBox="0 0 448 512"><!--! Font Awesome Pro 6.4.2 by @fontawesome - https://fontawesome.com License - https://fontawesome.com/license (Commercial License) Copyright 2023 Fonticons, Inc. --><path d="M40 168v48H88V168H40zM0 128H40 88h40v40 48 40H88 40 0V216 168 128zM40 328v48H88V328H40zM0 288H40 88h40v40 48 40H88 40 0V376 328 288zM248 168H200v48h48V168zm-48-40h48 40v40 48 40H248 200 160V216 168 128h40zm0 200v48h48V328H200zm-40-40h40 48 40v40 48 40H248 200 160V376 328 288zM408 168H360v48h48V168zm-48-40h48 40v40 48 40H408 360 320V216 168 128h40zm0 200v48h48V328H360zm-40-40h40 48 40v40 48 40H408 360 320V376 328 288z"/></svg>
